symbols/web/surfing/materialsymbolssharp/surfing_wght600_48px.svg

<svg xmlns="http://www.w3.org/2000/svg" height="48" width="48"><path d="M3.7 46.65V43H6q1.55 0 3.025-.55Q10.5 41.9 12 40.5q1.5 1.4 2.975 1.95T18 43q1.5 0 3.05-.575Q22.6 41.85 24 40.45q1.5 1.45 2.975 2T30 43q1.5 0 3.05-.575Q34.6 41.85 36 40.45q1.4 1.4 2.95 1.975Q40.5 43 42 43h2.3v3.65H42q-1.45 0-2.975-.425Q37.5 45.8 36 44.7q-1.5 1.1-3.025 1.525-1.525.425-2.975.425-1.45 0-2.975-.425Q25.5 45.8 24 44.7q-1.5 1.1-3.025 1.525-1.525.425-2.975.425-1.45 0-2.975-.425Q13.5 45.8 12 44.7q-1.5 1.1-3.025 1.525Q7.45 46.65 6 46.65ZM34.5 9.8q-1.65 0-2.825-1.175Q30.5 7.45 30.5 5.8q0-1.6 1.175-2.775Q32.85 1.85 34.5 1.85q1.6 0 2.775 1.175Q38.45 4.2 38.45 5.85q0 1.6-1.175 2.775Q36.1 9.8 34.5 9.8ZM18 38.15h-.275q-.125 0-.275-.05-5.3-3.65-8.275-6.7Q6.2 28.35 6.2 26.2q0-1.4 1.15-1.875 1.15-.475 2.35-.475 1.35 0 3.3.45 1.95.45 4.35 1.3l-1.55-9 6.55-4.35-4.5-.9-5.55 3.8-2.05-2.95 6.8-4.7 11 2.05q.65.15 1.275.55.625.4 1.075 1.15l1.75 3.1q1.25 2.2 3.55 3.6t5.1 1.55v3.6q-3.75-.15-6.875-2.075Q30.8 19.1 28.9 16l-4.85 3.3 7.75 6.1v8.05q.9.6 1.7 1.225.8.625 1.65 1.325-1.15 1-2.45 1.575-1.3.575-2.7.575-1.65 0-3.2-.825Q25.25 36.5 24 35.1q-1.25 1.4-2.8 2.225-1.55.825-3.2.825ZM28.2 31v-3.25l-7.55-5.15.7 4.7q1.9.85 3.475 1.725Q26.4 29.9 28.2 31Z"/></svg>

<svg xmlns="http://www.w3.org/2000/svg" height="48" width="48"><path d="M3.7 46.65V43H6Q7.55 43 9.025 42.45Q10.5 41.9 12 40.5Q13.5 41.9 14.975 42.45Q16.45 43 18 43Q19.5 43 21.05 42.425Q22.6 41.85 24 40.45Q25.5 41.9 26.975 42.45Q28.45 43 30 43Q31.5 43 33.05 42.425Q34.6 41.85 36 40.45Q37.4 41.85 38.95 42.425Q40.5 43 42 43H44.3V46.65H42Q40.55 46.65 39.025 46.225Q37.5 45.8 36 44.7Q34.5 45.8 32.975 46.225Q31.45 46.65 30 46.65Q28.55 46.65 27.025 46.225Q25.5 45.8 24 44.7Q22.5 45.8 20.975 46.225Q19.45 46.65 18 46.65Q16.55 46.65 15.025 46.225Q13.5 45.8 12 44.7Q10.5 45.8 8.975 46.225Q7.45 46.65 6 46.65ZM34.5 9.8Q32.85 9.8 31.675 8.625Q30.5 7.45 30.5 5.8Q30.5 4.2 31.675 3.025Q32.85 1.85 34.5 1.85Q36.1 1.85 37.275 3.025Q38.45 4.2 38.45 5.85Q38.45 7.45 37.275 8.625Q36.1 9.8 34.5 9.8ZM18 38.15Q17.85 38.15 17.725 38.15Q17.6 38.15 17.45 38.1Q12.15 34.45 9.175 31.4Q6.2 28.35 6.2 26.2Q6.2 24.8 7.35 24.325Q8.5 23.85 9.7 23.85Q11.05 23.85 13 24.3Q14.95 24.75 17.35 25.6L15.8 16.6L22.35 12.25L17.85 11.35L12.3 15.15L10.25 12.2L17.05 7.5L28.05 9.55Q28.7 9.7 29.325 10.1Q29.95 10.5 30.4 11.25L32.15 14.35Q33.4 16.55 35.7 17.95Q38 19.35 40.8 19.5V23.1Q37.05 22.95 33.925 21.025Q30.8 19.1 28.9 16L24.05 19.3L31.8 25.4V33.45Q32.7 34.05 33.5 34.675Q34.3 35.3 35.15 36Q34 37 32.7 37.575Q31.4 38.15 30 38.15Q28.35 38.15 26.8 37.325Q25.25 36.5 24 35.1Q22.75 36.5 21.2 37.325Q19.65 38.15 18 38.15ZM28.2 31V27.75L20.65 22.6L21.35 27.3Q23.25 28.15 24.825 29.025Q26.4 29.9 28.2 31Z"/></svg>
